X: 29153
T: Never On A Sunday
R: barndance
M: 4/4
K: Dmajor
Bdcd cded|=cdBd AdGd|Fdcd cded|f>g fe decd|
B=c/B/ ^AB =cB^AB|z =c/B/ ^AB =cB^AB|
GDGF GAB=c|d2 d=c d2 d=c|d2 d=c de=cd|B8|
z DGF GAB=c|d2 d=c d2 d=c|d2 d=c B=cAB|G8|
z DGF GAB=c|d2 d=c d2 d=c|d2 d=c de=cd|B8|
z DGF GAB=c|d2 d=c d2 d=c|d2 d=c B=cAB|G8|
z2 d2 e2 f2|g8|g2 fg a2 g2|f8|f2 ef g2 f2|
e8|e2 de f2 d2|B8|z2 d2 e2 f2|g8|g2 fg a2 g2|
f8|f2 ef g2 f2|e8|e2 de f2 d2|G8|
z DGF GAB=c|d2 d=c d2 d=c|d2 d=c de=cd|B8|
z DGF GAB=c|d2 d=c d2 d=c|d2 d=c B=cAB|G8|
z DGF GAB=c|d2 d=c d2 d=c|d2 d=c de=cd|B8|
z DGF GAB=c|d2 d=c d2 d=c|d2 d=c B=cAB|G8|G2||

